lib/functional/development/database.svg

<svg xmlns="http://www.w3.org/2000/svg" fill="none" stroke="currentColor" aria-hidden="true" viewBox="0 0 32 32"><g id="Icon-Database"><g clip-path="url(#clip0_10_901)"><g id="size=md (32px)"><g id="Database"><path id="Vector" stroke-linecap="round" stroke-linejoin="round" stroke-width="2" d="M16 16C22.0751 16 27 13.3137 27 10C27 6.68629 22.0751 4 16 4C9.92487 4 5 6.68629 5 10C5 13.3137 9.92487 16 16 16Z"/><path id="Vector_2" stroke-linecap="round" stroke-linejoin="round" stroke-width="2" d="M5 10V16C5 19.3125 9.925 22 16 22C22.075 22 27 19.3125 27 16V10"/><path id="Vector_3" stroke-linecap="round" stroke-linejoin="round" stroke-width="2" d="M5 16V22C5 25.3125 9.925 28 16 28C22.075 28 27 25.3125 27 22V16"/></g></g></g></g><defs><clipPath id="clip0_10_901"><rect width="32" height="32" fill="white" rx="5"/></clipPath></defs></svg>

<svg xmlns="http://www.w3.org/2000/svg" fill="none" stroke="currentColor" aria-hidden="true" viewBox="0 0 32 32"><path stroke-linecap="round" stroke-linejoin="round" stroke-width="2" d="M16 16c6.075 0 11-2.686 11-6s-4.925-6-11-6S5 6.686 5 10s4.925 6 11 6Z"/><path stroke-linecap="round" stroke-linejoin="round" stroke-width="2" d="M5 10v6c0 3.313 4.925 6 11 6s11-2.688 11-6v-6"/><path stroke-linecap="round" stroke-linejoin="round" stroke-width="2" d="M5 16v6c0 3.313 4.925 6 11 6s11-2.688 11-6v-6"/></svg>
